!!!!SEGMENT: pl-gd--ee-2628--006-011_stabile-annibale--il-terzo-libro-de-madrigali-a-cinque-voci-o-bell-arte-d-amor.krn
!!!cenid: 15xx:1078
!!!COM: Stabile, Annibale
!!!COM-rismID: pe30009662
!!!CDT: ~1535-1595/04
!!!CNT: Italian
!!!GTL: Il terzo libro de madrigali a cinque voci
!!!OTL: O bell’arte d’Amor
!!!OMV: 011
!!!PDT: 1585
!!!AGN:
!!!SMS-siglum: PL-GD
!!!SMS-shelfmark: Ee 2628
!!!SMS-shelfwork: 006-011 G
!!!SMS-variant:
!!!SMS-altvar:
!!!NIFC-rismSourceID: 1001203361
!!!NIFC-rismChildID: 990060530
!!!NIFC-islandoraID: pl-gd:66139
!!!URL-pdf-islandora: https://repozytorium.nifc.pl/islandora/object/pl-gd%3A66139/datastream/PDF/view
!!!URL-scan: https://polish.musicsources.pl/pl/lokalizacje/galeria/klocki-introligatorskie/673 @EN{Scan on Polish Music Sources Website} @PL{Skany w portalu Dziedzictwo Muzyki Polskiej w otwartym dostępie}
!!!IIIF:
!!!ONB-nifc: UWAGA: Canto: s. 90-101, Tenore: s. 246-257, Basso: s. 402-413, Quinto: s. 724-735. Dla głosu Alto proszę skorzystać z https://pbc.gda.pl/dlibra/publication/87582/edition/79411/content, str. 25-48. Uwaga: utwory podzielone wg spisu treści dostępnych na końcu ksiąg – proszę sprawdzać sąsiednie tytuły. Głos Quinto proszę umieszczać wg ambitusu (może się różnić w zależności od utworu).
!!!AIN: 1 alto 1 bass 1 soprn 1 tenor 1 vox
!!!key: g
**kern	**text	**kern	**text	**kern	**text	**kern	**text	**kern	**text
*part5	*part5	*part4	*part4	*part3	*part3	*part2	*part2	*part1	*part1
*staff5	*staff5	*staff4	*staff4	*staff3	*staff3	*staff2	*staff2	*staff1	*staff1
*I"BASSO	*	*I"TENORE	*	*I"ALTO	*	*I"CANTO	*	*I"QVINTO	*
*I'B	*	*I'T	*	*I'A	*	*I'S	*	*I'V	*
*ICvox	*	*ICvox	*	*ICvox	*	*ICvox	*	*ICvox	*
*Ibass	*	*Itenor	*	*Ialto	*	*Isoprn	*	*Ivox	*
*clefF3	*	*clefC3	*	*clefC2	*	*clefG2	*	*clefG2	*
*k[b-]	*	*k[b-]	*	*k[b-]	*	*k[b-]	*	*k[b-]	*
*g:	*	*g:	*	*g:	*	*g:	*	*g:	*
*M2/1	*	*M2/1	*	*M2/1	*	*M2/1	*	*M2/1	*
*met(C)	*	*met(C)	*	*met(C)	*	*met(C)	*	*met(C)	*
=1-	=1-	=1-	=1-	=1-	=1-	=1-	=1-	=1-	=1-
!LO:TX:a:t=Seconda parte	!	!LO:TX:a:t=Seconda parte	!	!LO:TX:a:t=Seconda parte	!	!LO:TX:a:t=Seconda parte	!	!LO:TX:a:t=Seconda parte	!
!LO:TX:t=P:problem:podwójnie zapisany znak przykluczowy: BB- B-	!	!	!	!LO:TX:t=P:problem:podwójnie zapisany znak przykluczowy: B- b-	!	!	!	!	!
00r	.	2.d\	O	2r	.	2.ff\	O	0r	.
.	.	.	.	2.f\	O	.	.	.	.
.	.	4c/	bel-	.	.	4ee\	Bel-	.	.
.	.	2B-/	-la ar-	.	.	2dd\	-la ar-	.	.
.	.	.	.	4g\	Bel-	.	.	.	.
.	.	4A/	-te	4a\	-la ar-	4cc\	-te	.	.
.	.	4B-/	d`a-	2d/	-te	4dd\	d`a-	.	.
=2-	=2-	=2-	=2-	=2-	=2-	=2-	=2-	=2-	=2-
.	.	8G/	-mor	.	.	2b-/	-mor	2r	.
.	.	8A/	.	.	.	.	.	.	.
.	.	8B-/	.	4g\	d`a-	.	.	.	.
.	.	8c/	.	.	.	.	.	.	.
.	.	4d\	.	4f\	-mor	8a/	per-	4r	.
.	.	.	.	.	.	8b-/	.	.	.
.	.	4A/	per-	4a\	per-	8cc\	.	2ff\	O
.	.	.	.	.	.	8a/	.	.	.
.	.	4B-/	-ch`io	4g\	-ch`io	4dd\	.	.	.
.	.	4c/	non	4g\	non	8cc\	.	4ee\	Bel-
.	.	.	.	.	.	8b-\	.	.	.
*	*	*custos:d	*	*	*	*custos:a	*	*	*
!	!	!LO:LB:g=original	!	!	!	!LO:LB:g=original	!	!	!
.	.	4.d\	pe-	4.f\	pe-	4a/	.	2dd\	-la ar-
.	.	.	.	.	.	4ff\	-ch`io	.	.
.	.	8e\	.	8g\	.	.	.	.	.
*	*	*	*	*custos:a	*	*	*	*	*
!	!	!	!	!LO:LB:g=original	!	!	!	!	!
=3-	=3-	=3-	=3-	=3-	=3-	=3-	=3-	=3-	=3-
4r	.	8f\	.	8a\	.	4ff\	non	4cc\	-te
.	.	8g\	.	8g\	.	.	.	.	.
2D/	O	2a\	.	8f\	.	2ff\	pe-	4dd\	d`a-
.	.	.	.	8e\	.	.	.	.	.
.	.	.	.	4d/	.	.	.	2b-/	-mor
4E/	Bel-	4g\	.	4G/	-ra	8ee\	.	.	.
.	.	.	.	.	.	8dd\	.	.	.
2F/	-la ar-	2a\	-ra	2.c/	per-	1cc	.	2a/	per-
4E/	-te	4r	.	.	.	.	.	4g/	-ch`io
4F/	d`a-	4a\	per-	4A/	-ch`io	.	.	4f/	non
=4-	=4-	=4-	=4-	=4-	=4-	=4-	=4-	=4-	=4-
8D/	-mor	2.a\	-ch`io	2d/	non	2f/	-ra	2ff\	pe-
8E/	.	.	.	.	.	.	.	.	.
8F\	.	.	.	.	.	.	.	.	.
8G\	.	.	.	.	.	.	.	.	.
*	*	*	*	*	*	*	*	*custos:ee	*
!	!	!	!	!	!	!	!	!LO:LB:g=original	!
4A\	.	.	.	8c/	pe-	2r	.	4ee\	-ra
.	.	.	.	8d/	.	.	.	.	.
4c\	per-	8g\	.	8e/	.	.	.	4cc\	per-
.	.	8f\	.	8f\	.	.	.	.	.
*custos:c	*	*	*	*	*	*	*	*	*
!LO:LB:g=original	!	!	!	!	!	!	!	!	!
4c\	-ch`io	4e\	.	4.g\	.	1r	.	4cc\	-ch`io
4G\	non	4d\	non	.	.	.	.	4b-/	non
.	.	.	.	8f\	.	.	.	.	.
*	*	*custos:c#	*	*	*	*	*	*	*
!	!	!LO:LB:g=original	!	!	!	!	!	!	!
2A\	pe-	2c#X/	pe-	2e\	.	.	.	2a/	pe-
=5-	=5-	=5-	=5-	=5-	=5-	=5-	=5-	=5-	=5-
1D	-ra	1d	-ra	1f#X	-ra	2r	.	1a	-ra
.	.	.	.	.	.	2.dd\	Gra-	.	.
*	*	*	*	*custos:g	*	*	*	*	*
!	!	!	!	!LO:LB:g=original	!	!	!	!	!
1r	.	1r	.	2.g\	Gra-	.	.	2r	.
.	.	.	.	.	.	4dd\	-to	.	.
.	.	.	.	.	.	2ee-X\	a-	4r	.
.	.	.	.	4g\	-to a-	.	.	2g/	Gra-
=6-	=6-	=6-	=6-	=6-	=6-	=6-	=6-	=6-	=6-
0r	.	1r	.	2b-\	-ma-	4dd\	-ma-	.	.
.	.	.	.	.	.	4b-/	-ro	4g/	-to a-
.	.	.	.	4g\	-ro	4dd\	riſ-	2b-/	-ma-
.	.	.	.	4g\	riſ-	8cc\	-to-	.	.
.	.	.	.	.	.	8b-\	.	.	.
.	.	2r	.	1fny	-to-	4a/	.	4cc\	-ro
.	.	.	.	.	.	2b-/	.	4dd\	riſ-
.	.	4r	.	.	.	.	.	2cc\	-to-
.	.	2f\	Gra-	.	.	4a/	.	.	.
*	*	*	*	*	*	*	*	*custos:dd	*
!	!	!	!	!	!	!	!	!LO:LB:g=original	!
=7-	=7-	=7-	=7-	=7-	=7-	=7-	=7-	=7-	=7-
2.B-\	Gra-	.	.	2d/	-ro	1b-	-ro	1dd	-ro
.	.	4f\	-to a-	.	.	.	.	.	.
.	.	2g\	-ma-	4r	.	.	.	.	.
*	*	*	*	*	*ij	*	*	*	*
4B-\	-to a-	.	.	2b-\	Gra-	.	.	.	.
2d\	-ma-	2f\	-ro	.	.	1r	.	2r	.
.	.	.	.	4a\	-to a-	.	.	.	.
4B-\	-ro	4d\	riſ-	2b-\	-ma-	.	.	2dd\	al
4B-\	riſ-	4.g\	-to-	.	.	.	.	.	.
=8-	=8-	=8-	=8-	=8-	=8-	=8-	=8-	=8-	=8-
1c	-to-	.	.	4a\	-ro	1r	.	1.cc	cor
.	.	8f\	.	.	.	.	.	.	.
.	.	2f\	.	4a\	riſ-	.	.	.	.
.	.	.	.	2g\	-to-	.	.	.	.
.	.	4e\	.	.	.	.	.	.	.
*custos:F	*	*	*	*	*	*	*	*	*
!LO:LB:g=original	!	!	!	!	!	!	!	!	!
1F	-ro	2f\	-ro	0a	-ro	2r	.	.	.
.	.	4r	.	.	.	2ff\	al	2cc\	com-
.	.	4f\	al	.	.	.	.	.	.
*	*	*	*	*	*Xij	*	*	*	*
=9-	=9-	=9-	=9-	=9-	=9-	=9-	=9-	=9-	=9-
2r	.	4d\	cor	.	.	2ff\	cor	4dd\	-par-
.	.	4e\	.	.	.	.	.	8dd\	.
.	.	.	.	.	.	.	.	8b-\	.
2F/	al	4f\	.	.	.	2cc\	com-	4a/	.
.	.	4g\	.	.	.	.	.	4b-/	.
*	*	*custos:a	*	*	*	*	*	*	*
!	!	!LO:LB:g=original	!	!	!	!	!	!	!
2F/	cor	2a\	.	2r	.	2ff\	-par-	2cc\	.
2C/	com-	2g\	com-	2c/	al	4eeny\	.	2cc\	-te
.	.	.	.	.	.	4dd\	.	.	.
=10-	=10-	=10-	=10-	=10-	=10-	=10-	=10-	=10-	=10-
2.F/	-par-	2.a\	-par-	4c/	cor	4cc\	.	2r	.
.	.	.	.	8d/	.	4a/	.	.	.
.	.	.	.	8e/	.	.	.	.	.
.	.	.	.	4f\	.	2.dd\	.	2a/	com-
4G\	.	8g\	.	4d/	com-	.	.	.	.
.	.	8f\	.	.	.	.	.	.	.
2A\	.	1e	.	4a\	-par-	.	.	1a	par-
.	.	.	.	8g\	.	8cc#X\	.	.	.
!	!	!	!	!	!	!LO:N:acc=#	!	!	!
.	.	.	.	8f\	.	8bn\	.	.	.
*	*	*	*	*custos:e	*	*custos:cc#	*	*	*
!	!	!	!	!LO:LB:g=original	!	!LO:LB:g=original	!	!	!
2A\	-te	.	.	2e/	.	2cc#X\	.	.	.
=11-	=11-	=11-	=11-	=11-	=11-	=11-	=11-	=11-	=11-
2r	.	1d	-te	1f#X	-te	1dd	-te	1a	-te
2.d\	Quan-	.	.	.	.	.	.	.	.
.	.	1r	.	4r	.	1r	.	2ff\	Quan-
2B-\	-do e-	.	.	4d/	Quan-	.	.	.	.
.	.	.	.	4.fny\	-do e-	.	.	4dd\	-doe-
4d\	-gli	.	.	.	.	.	.	4ff\	-gli
.	.	.	.	8g\	.	.	.	.	.
=12-	=12-	=12-	=12-	=12-	=12-	=12-	=12-	=12-	=12-
2c\	ſa	2r	.	4a\	.	2ccny\	Quan-	2ee\	ſa
.	.	.	.	4g\	-gli	.	.	.	.
4F/	ch`og-	2.a\	Quan-	2f\	ſa	2.cc\	-do e-	1ff	ch og-
8F/	-ni	.	.	.	.	.	.	.	.
8F/	pia-	.	.	.	.	.	.	.	.
4F/	-cer	.	.	4F/	ch og-	.	.	.	.
4D/	ab-	2f\	-do e-	8F/	-ni	4dd\	-gli	.	.
.	.	.	.	8G/	pia-	.	.	.	.
*custos:F	*	*	*	*	*	*	*	*custos:ff	*
!LO:LB:g=original	!	!	!	!	!	!	!	!LO:LB:g=original	!
2F/	-bo-	.	.	4.A/	-cer	2cc\	ſa	2ff\	-ni
.	.	4a\	-gli	.	.	.	.	.	.
.	.	.	.	8B-/	ab-	.	.	.	.
=13-	=13-	=13-	=13-	=13-	=13-	=13-	=13-	=13-	=13-
1C	-re	2g\	ſa	4c/	-bor-	4cc\	ch og-	2ee\	pia-
.	.	.	.	4c/	-re	8cc\	-ni	.	.
.	.	.	.	.	.	8cc\	pia-	.	.
.	.	4cny/	ch`og-	4g\	ch og-	4cc\	-cer	2.ee\	-cer
.	.	8c/	-ni	8g\	-ni	4g/	ab-	.	.
.	.	8c/	pia-	8g\	pia-	.	.	.	.
*	*	*	*	*custos:g	*	*	*	*	*
!	!	!	!	!LO:LB:g=original	!	!	!	!	!
1r	.	4c/	-cer	4g\	-cer	1cc	-bor-	.	.
.	.	4A/	ab-	4a\	ab-	.	.	4ff\	ab-
.	.	2c/	-bor-	2g\	-bo-	.	.	2ee\	-bor-
=14-	=14-	=14-	=14-	=14-	=14-	=14-	=14-	=14-	=14-
!	!	!d	!	!	!	!LO:N:acc=#	!	!	!
2r	.	2G/	-re	2g\	-re	1bn	-re	1dd	-re
*	*	*custos:d	*	*	*	*	*	*	*
!	!	!LO:LB:g=original	!	!	!	!	!	!	!
2G\	La	2d\	La	2g\	La	.	.	.	.
4.A\	gio-	4.c#X/	gio-	2e/	gio-	2r	.	1r	.
8B-\	-ia	8d\	-ia	.	.	.	.	.	.
4c\	di	4e\	di	4a\	-ia	4r	.	.	.
4d\	Ma-	4f\	Ma-	2a\	di	4dd\	La	.	.
=15-	=15-	=15-	=15-	=15-	=15-	=15-	=15-	=15-	=15-
2A\	-don-	4e\	-don-	.	.	4.cc#X\	gio-	2r	.
.	.	4e\	-na	4a\	Ma-	.	.	.	.
.	.	.	.	.	.	8dd\	-ia	.	.
*	*	*	*	*	*	*custos:ee	*	*	*
!	!	!	!	!	!	!LO:LB:g=original	!	!	!
4A\	-na	4c#X/	mia	2a\	-don-	4ee\	di	4r	.
4D/	La	4d\	vi-	.	.	4ff\	Ma-	4dd\	La
4.A\	gio-	4e\	-ta e-	2a\	-na	2ee\	-don-	4.cc#X\	gio-
.	.	4A/	-ra	.	.	.	.	.	.
8B-\	-ia	.	.	.	.	.	.	8dd\	-ia
4c\	di	2r	.	2r	.	2a/	-na	4ee\	di
4d\	Ma-	.	.	.	.	.	.	4ff\	Ma-
=16-	=16-	=16-	=16-	=16-	=16-	=16-	=16-	=16-	=16-
2c\	-don-	0r	.	4r	.	4r	.	2ee\	-don-
.	.	.	.	4.a\	mia	4.ccny\	mia	.	.
2A\	-na	.	.	.	.	.	.	2ccny\	-na
.	.	.	.	8g\	.	8b-y/	.	.	.
.	.	.	.	8f\	.	8a/	.	.	.
.	.	.	.	8e\	.	8g/	.	.	.
*custos:B-	*	*	*	*	*	*	*	*	*
!LO:LB:g=original	!	!	!	!	!	!	!	!	!
4B-\	mia	.	.	4d/	.	4f/	.	4dd\	mia
4G\	vi-	.	.	4b-\	vi-	4g/	vi-	4dd\	vi-
2d\	-ta e-	.	.	2a\	-ta e-	2f#X/	-ta e-	2dd\	-ta e-
=17-	=17-	=17-	=17-	=17-	=17-	=17-	=17-	=17-	=17-
2G\	-ra	2r	.	4g\	-ra	2g/	-ra	2dd\	-ra
.	.	.	.	4g\	Fin	.	.	.	.
*	*	*	*	*custos:b-	*	*	*	*	*
!	!	!	!	!LO:LB:g=original	!	!	!	!ff	!
2G\	Fin	2d\	Fin	4b-\	ch`al	4r	.	2gg\	Fin
.	.	.	.	4b-\	ciel	4dd\	Fin	.	.
*	*	*	*	*	*	*	*	*custos:ff	*
!	!	!	!	!	!	!	!	!LO:LB:g=original	!
4d\	ch`al	4d\	ch`al	4.a\	piac-	4dd\	ch`al	4ff\	ch`al
4c#X\	ciel	4A/	ciel	.	.	4ee\	ciel	4ee\	ciel
.	.	.	.	8g\	.	.	.	.	.
2d\	piac	2a\	piac	4f\	.	2ff\	piac-	2dd\	piac
.	.	.	.	8e/	.	.	.	.	.
.	.	.	.	8d/	.	.	.	.	.
=18-	=18-	=18-	=18-	=18-	=18-	=18-	=18-	=18-	=18-
4A\	que	2a\	que	4e/	.	4ee\	-que	4cc#X\	que
*	*ij	*	*	*	*	*	*ij	*	*ij
4d\	Fin	.	.	4d/	-que	4ff\	Fin	4dd\	Fin
*	*	*custos:A	*ij	*	*	*custos:ff	*	*	*
!	!	!LO:LB:g=original	!	!	!	!LO:LB:g=original	!	!	!
4B-\	ch`al	4r	.	4r	.	4ff\	ch`al	4dd\	ch`al
4cny\	ciel	4A/	Fin	4a\	Fin	4ee\	ciel	4ccny\	ciel
2d\	piac	4B-/	ch`al	4f\	ch`al	1dd	piac-	2b-/	piac
.	.	4G/	ciel	4g\	ciel	.	.	.	.
2D/	que	2d\	piac	2f#X\	piac-	.	.	4a/	que
*	*Xij	*	*	*	*	*	*	*	*Xij
.	.	.	.	.	.	.	.	4a/	Hor
=19-	=19-	=19-	=19-	=19-	=19-	=19-	=19-	=19-	=19-
2r	.	4G/	que	2g\	-que	2dd\	-que	4.b-/	che
*	*	*	*Xij	*	*	*	*	*	*
.	.	4G/	Hor	.	.	.	.	.	.
.	.	.	.	.	.	.	.	8cc\	men
*	*	*	*	*	*	*	*Xij	*	*
2G\	Hor	8B-/	che	4r	.	2gg\	Hor	1dd	vo
.	.	8cny/	.	.	.	.	.	.	.
.	.	8d\	.	4g\	Hor	.	.	.	.
.	.	8e\	.	.	.	.	.	.	.
2d\	che	4f\	.	8a\	che	2ff\	che	.	.
.	.	.	.	8g\	.	.	.	.	.
.	.	4d\	men	8a\	.	.	.	.	.
.	.	.	.	8b-\	.	.	.	.	.
*custos:A	*	*	*	*	*	*	*	*	*
!LO:LB:g=original	!	!	!	!	!	!	!	!	!
4A\	men	8a\	vo	4cc\	.	4ee\	men	2r	.
.	.	8g\	in	.	.	.	.	.	.
2B-\	vo in	8f\	.	4b-\	men	2dd\	vo in	.	.
.	.	8e\	.	.	.	.	.	.	.
*	*	*	*	*custos:b-	*	*	*	*	*
!	!	!	!	!LO:LB:g=original	!	!	!	!	!
=20-	=20-	=20-	=20-	=20-	=20-	=20-	=20-	=20-	=20-
.	.	4f\	.	4b-\	vo in	.	.	2r	.
4c\	diſ-	4e\	diſ-	4g\	diſ-	4cc\	diſ-	.	.
2G\	-par-	2d\	-par-	2dd\	-par-	2b-/	-par-	1gg	Il
1D	-te	2d\	-te	1dd	-te	1a	-te	.	.
.	.	2d\	Il	.	.	.	.	2ff#X\	ſuo
=21-	=21-	=21-	=21-	=21-	=21-	=21-	=21-	=21-	=21-
!	!	!LO:N:acc=#	!	!	!	!	!	!	!
00r	.	2Bn/	ſuo	2d/	il	2r	.	2ff#yX\	do-
*	*	*custos:B	*	*	*	*	*	*	*
!	!	!LO:LB:g=original	!	!	!	!	!	!ee	!
.	.	2B/	do-	4d/	ſuo	2dd\	Il	1gg	-lor
.	.	.	.	4d/	do-	.	.	.	.
.	.	1c	-lor	2e/	-lor	2cc\	ſuo	.	.
*	*	*	*	*	*	*	*	*custos:ee	*
!	!	!	!	!	!	!	!	!LO:LB:g=original	!
.	.	.	.	2g\	al	2cc\	do-	2ee\	al
=22-	=22-	=22-	=22-	=22-	=22-	=22-	=22-	=22-	=22-
.	.	2A/	al	2a\	mio	2.cc#X\	-lor	2ee\	mio
.	.	4A/	mio	2a\	do-	.	.	1ffny	do-
.	.	4A/	do-	.	.	4cc#\	al	.	.
.	.	2B-y/	-lor	2.g\	-lor	2dd\	mio	.	.
.	.	2c/	ſoc-	.	.	2ccny\	do-	2ee\	-lor
.	.	.	.	4a\	ſoc-	.	.	.	.
*	*	*	*	*	*	*custos:b-	*	*	*
!	!	!	!	!	!	!LO:LB:g=original	!	!	!
=23-	=23-	=23-	=23-	=23-	=23-	=23-	=23-	=23-	=23-
1r	.	2.d\	-cor-	1fny	-cor-	2b-/	-lor	2dd\	ſoc-
.	.	.	.	.	.	1a	ſoc-	1ff	-cor-
.	.	4c\	.	.	.	.	.	.	.
2r	.	1B-	.	1d	-re	.	.	.	.
1d\	Il	.	.	.	.	2g/	-cor-	4ee\	.
.	.	.	.	.	.	.	.	4dd\	.
=24-	=24-	=24-	=24-	=24-	=24-	=24-	=24-	=24-	=24-
.	.	1A	-re	2r	.	2.a/	-re	2ff\	.
2c#X\	ſuo	.	.	2a\	Il	.	.	2ee\	-re
.	.	.	.	.	.	8g/	.	.	.
.	.	.	.	.	.	8fny/	.	.	.
2c#\	do-	2r	.	4a\	ſuo	4e/	.	0r	.
.	.	.	.	4a\	do-	4f/	.	.	.
1d\	-lor	2G/	Il	4b-\	-lor	2g/	.	.	.
.	.	.	.	4b-\	al	.	.	.	.
*	*	*	*	*custos:a	*	*	*	*	*
!	!	!	!	!LO:LB:g=original	!	!	!	!	!
=25-	=25-	=25-	=25-	=25-	=25-	=25-	=25-	=25-	=25-
.	.	2F#X/	ſuo	2a\	mio	2r	.	.	.
2A\	al	2F#/	do-	2a\	do-	1dd	Il	.	.
!LO:N:acc=#	!	!	!	!	!	!	!	!	!
2Bn\	mio	2G/	-lor	2.g\	-lor	.	.	1r	.
2cny\	do-	2E/	al	.	.	1cc\	ſuo	.	.
.	.	.	.	4e/	ſoc-	.	.	.	.
=26-	=26-	=26-	=26-	=26-	=26-	=26-	=26-	=26-	=26-
1d	-lor	2F#X/	mio	2a\	-cor-	.	.	2r	.
.	.	2G/	do-	2g\	-re	2b-/	do-	1gg	Il
*	*	*custos:d	*	*	*	*	*	*	*
!	!	!LO:LB:g=original	!	!	!	!	!	!	!
0r	.	2.d\	-lor	2r	.	2a/	-lor	.	.
*	*	*	*	*	*	*	*ij	*	*
.	.	.	.	2a\	Il	2dd\	Il	1ff\	ſuo
.	.	4c/	.	.	.	.	.	.	.
=27-	=27-	=27-	=27-	=27-	=27-	=27-	=27-	=27-	=27-
!	!	!LO:N:acc=#	!	!	!	!	!	!	!
.	.	2Bn/	.	2.g\	ſuo	2dd\	ſuo	.	.
.	.	2c/	ſoc-	.	.	2cc\	do-	2ee\	do-
.	.	.	.	4g\	do-	.	.	.	.
2r	.	1d	-cor-	2f#X\	-lor	2a/	-lor	1.dd	-lor
*	*	*	*	*	*	*	*Xij	*	*
2G\	Il	.	.	2g\	al	2b-/	al	.	.
*custos:F#	*	*	*	*	*	*	*	*	*
!LO:LB:g=original	!	!	!	!	!	!	!	!	!
=28-	=28-	=28-	=28-	=28-	=28-	=28-	=28-	=28-	=28-
2F#X/	ſuo	1d	-re	4a\	mio	2a/	mio	.	.
.	.	.	.	2A/	do-	.	.	.	.
*	*	*	*	*	*	*custos:dd	*	*	*
!	!	!	!	!	!	!LO:LB:g=original	!	!	!
2F#/	do-	.	.	.	.	1dd	do-	2a/	al
.	.	.	.	2d/	-lor	.	.	.	.
2G\	-lor	2r	.	.	.	.	.	2b-/	mio
.	.	.	.	4G/	ſoc-	.	.	.	.
2D/	al	2d\	al	1A/	-cor-	1ff\	-lor	1a/	do-
=29-	=29-	=29-	=29-	=29-	=29-	=29-	=29-	=29-	=29-
2Fny/	mio	1c	mio	.	.	.	.	.	.
2C/	do-	.	.	2G/	-re	2ee-X\	ſoc-	2cc\	-lor
*	*	*	*	*	*	*	*	*custos:b-	*
!	!	!	!	!	!	!	!	!LO:LB:g=original	!
1D	-lor	1Fny	do-	2r	.	0.dd	-cor-	2b-/	ſoc-
.	.	.	.	2d/	ſoc-	.	.	2.a/	-cor-
=30-	=30-	=30-	=30-	=30-	=30-	=30-	=30-	=30-	=30-
1BB-	ſoc-	2G/	-lor	1d	-cor-	.	.	.	.
.	.	.	.	.	.	.	.	4g/	.
.	.	2B-y/	ſoc-	.	.	.	.	2.g/	.
!	!	!	!	!LO:N:vis=00	!	!	!	!	!
1D	-cor-	1A	-cor-	1%5d	-re.	.	.	.	.
.	.	.	.	.	.	.	.	8f#X/	.
.	.	.	.	.	.	.	.	8e/	.
.	.	.	.	.	.	.	.	2f#X/	.
=31-	=31-	=31-	=31-	=31-	=31-	=31-	=31-	=31-	=31-
!	!	!	!	!	!	!LO:N:acc=#	!	!	!
00G	-re.	00G	-re.	.	.	00bn	-re.	00g	-re.
==	==	==	==	==	==	==	==	==	==
*-	*-	*-	*-	*-	*-	*-	*-	*-	*-
!!!system-decoration: [(s1,s2,s3,s4,s5)]
!!!ENC: Filip Voros
!!!END: 2022-07-10
!!!ENC: Jan Barakat
!!!END: 2022-08-02
!!!YEC: Copyright 2022 Narodowy Instytut Fryderyka Chopina (https://polishscores.org)
!!!YEM: License CC-BY-4.0 (https://creativecommons.org/licenses/by/4.0)
